svg/fast_forward_outline.svg

<svg xmlns="http://www.w3.org/2000/svg" viewBox="0 0 24 24"><path d="m15 9.9 3 2.1-3 2.1zm-9 0L9 12l-3 2.1zM13 6v12l8.5-6zM4 6v12l8.5-6z"/></svg>

<?xml version="1.0" encoding="UTF-8"?><!DOCTYPE svg PUBLIC "-//W3C//DTD SVG 1.1//EN" "http://www.w3.org/Graphics/SVG/1.1/DTD/svg11.dtd"><svg xmlns="http://www.w3.org/2000/svg" xmlns:xlink="http://www.w3.org/1999/xlink" version="1.1" id="mdi-fast-forward-outline" width="24" height="24" viewBox="0 0 24 24"><path d="M15,9.9L18,12L15,14.1V9.9M6,9.9L9,12L6,14.1V9.9M13,6V18L21.5,12L13,6M4,6V18L12.5,12L4,6Z" /></svg>
